svgs/light/award-simple.svg

<svg xmlns="http://www.w3.org/2000/svg" viewBox="0 0 384 512"><!--! Font Awesome Pro 6.3.0 by @fontawesome - https://fontawesome.com License - https://fontawesome.com/license (Commercial License) Copyright 2023 Fonticons, Inc. --><path d="M192 104C143.4 104 104 143.3 104 192c0 48.58 39.39 88 87.1 88S279.1 240.6 279.1 192C279.1 143.3 240.6 104 192 104zM192 248C161.1 248 136 222.9 136 192c0-30.88 25.12-56 55.1-56S247.1 161.1 247.1 192C247.1 222.9 222.9 248 192 248zM384 192c0-16.5-17.27-30.52-21.34-45.73c-4.207-15.75 3.608-36.5-4.369-50.29c-8.086-13.98-30.03-17.52-41.37-28.87c-11.35-11.35-14.88-33.29-28.87-41.39c-13.76-7.963-34.62-.1888-50.29-4.378C222.5 17.27 208.5 0 192 0C175.5 0 161.5 17.27 146.3 21.34C130.5 25.54 109.7 17.74 95.98 25.71C81.1 33.79 78.46 55.74 67.11 67.08C55.77 78.43 33.82 81.96 25.73 95.95C17.74 109.7 25.55 130.5 21.35 146.2C17.27 161.5 0 175.5 0 192c0 16.5 17.27 30.52 21.34 45.73c4.207 15.75-3.612 36.5 4.365 50.29C33.8 302 55.74 305.5 67.08 316.9c11.35 11.35 14.88 33.29 28.86 41.39c13.74 7.951 34.62 .1803 50.29 4.38C161.5 366.7 175.5 384 192 384c16.5 0 30.52-17.27 45.74-21.34c15.72-4.207 36.5 3.603 50.29-4.368c13.98-8.088 17.52-30.03 28.87-41.38c11.35-11.35 33.29-14.88 41.39-28.86c7.981-13.79 .1698-34.54 4.377-50.29C366.7 222.5 384 208.5 384 192zM331.7 229.5c-4.404 16.49-1.34 32.1-1.695 42.27c-7.858 4.969-23.64 10.38-35.78 22.52c-12.03 12.03-17.59 27.99-22.5 35.75c-9.195 .4141-25.54-2.775-42.28 1.703c-16.71 4.467-29.4 15.76-37.48 19.79c-8.029-4.002-20.8-15.34-37.48-19.79c-16.71-4.477-33.04-1.301-42.29-1.717C107.3 322.2 101.8 306.4 89.71 294.3C77.6 282.1 61.86 276.8 53.94 271.7C53.59 262.5 56.7 246.1 52.25 229.5c-4.465-16.71-15.77-29.39-19.8-37.48c3.996-8.025 15.33-20.77 19.8-37.5c4.434-16.6 1.33-32.88 1.697-42.27c7.854-4.971 23.64-10.37 35.78-22.52C101.8 77.68 107.3 61.72 112.2 53.95c9.194-.377 25.64 2.738 42.28-1.701c16.74-4.475 29.33-15.74 37.48-19.79c8.027 3.992 20.77 15.33 37.49 19.8c16.74 4.471 33.01 1.295 42.28 1.711c4.84 7.65 10.45 23.71 22.51 35.76c12.03 12.04 28 17.61 35.77 22.52c.3555 9.273-2.752 25.64 1.693 42.28c4.469 16.71 15.77 29.38 19.79 37.47C347.6 200 336.2 212.8 331.7 229.5zM303.7 399.7c-1.813-8.656-10.16-14.23-18.94-12.39c-8.625 1.797-14.19 10.27-12.38 18.92l17.47 73.84l-90.66-45.33c-4.5-2.25-9.813-2.25-14.31 0l-88.88 46.72l15.69-75.23c1.813-8.656-3.75-17.12-12.38-18.92c-8.688-1.844-17.16 3.734-18.94 12.39l-15.69 75.25c-2.438 11.64 1.938 23.38 11.34 30.62c9.438 7.234 21.84 8.438 32.5 3.125L192 466.1l83.5 41.75C279.9 510.9 284.6 512 289.3 512c6.625 0 13.16-2.172 18.69-6.406c9.406-7.25 13.78-18.98 11.34-30.64L303.7 399.7z"/></svg>

<svg xmlns="http://www.w3.org/2000/svg" viewBox="0 0 384 512"><!-- Font Awesome Pro 6.0.0-alpha2 by @fontawesome - https://fontawesome.com License - https://fontawesome.com/license (Commercial License) --><path d="M192 104C143.394 104 104 143.301 104 192C104 240.582 143.394 280 192 280S280 240.582 280 192C280 143.301 240.606 104 192 104ZM192 248C161.122 248 136.001 222.877 136.001 192C136.001 161.121 161.122 136 192 136S247.999 161.121 247.999 192C247.999 222.877 222.878 248 192 248ZM384 192C384 175.498 366.734 161.484 362.664 146.266C358.457 130.52 366.281 109.773 358.304 95.986C350.218 82.006 328.266 78.459 316.922 67.109C305.571 55.76 302.028 33.807 288.047 25.713C274.291 17.75 253.441 25.533 237.767 21.344C222.536 17.271 208.516 0 192 0C175.5 0 161.484 17.27 146.265 21.336C130.507 25.545 109.742 17.732 95.988 25.695C82.008 33.783 78.461 55.736 67.113 67.082C55.765 78.432 33.809 81.973 25.719 95.957C17.735 109.744 25.555 130.49 21.348 146.236C17.274 161.465 0 175.486 0 192C0 208.502 17.274 222.516 21.34 237.734C25.547 253.48 17.719 274.227 25.696 288.014C33.79 301.994 55.737 305.541 67.081 316.891C78.433 328.24 81.976 350.193 95.957 358.287C109.701 366.238 130.561 358.457 146.237 362.656C161.468 366.729 175.488 384 192 384C208.5 384 222.52 366.73 237.739 362.664C253.458 358.457 274.228 366.275 288.016 358.305C302 350.217 305.547 328.264 316.891 316.918C328.243 305.568 350.195 302.027 358.289 288.043C366.269 274.256 358.449 253.51 362.656 237.764C366.73 222.535 384 208.514 384 192ZM331.741 229.504C327.337 245.992 330.401 262.502 330.046 271.771C322.188 276.74 306.409 282.146 294.262 294.291C282.234 306.322 276.668 322.279 271.757 330.045C262.562 330.459 246.216 327.27 229.479 331.748C212.768 336.215 200.082 347.51 191.996 351.541C183.967 347.539 171.199 336.203 154.517 331.746C137.811 327.27 121.479 330.445 112.223 330.029C107.27 322.191 101.828 306.381 89.715 294.268C77.601 282.148 61.865 276.764 53.944 271.744C53.589 262.492 56.698 246.109 52.255 229.473C47.79 212.762 36.489 200.082 32.46 191.994C36.456 183.969 47.788 171.221 52.263 154.496C56.696 137.898 53.593 121.621 53.96 112.229C61.814 107.258 77.595 101.855 89.738 89.711C101.772 77.682 107.34 61.721 112.248 53.953C121.442 53.576 137.888 56.691 154.527 52.252C171.271 47.777 183.861 36.512 192.006 32.459C200.033 36.451 212.778 47.785 229.501 52.258C246.237 56.729 262.509 53.553 271.781 53.969C276.621 61.619 282.23 77.674 294.289 89.73C306.323 101.771 322.29 107.336 330.057 112.252C330.413 121.525 327.305 137.893 331.751 154.533C336.22 171.238 347.517 183.916 351.54 192.004C347.564 200.004 336.216 212.779 331.741 229.504ZM303.659 399.719C301.846 391.062 293.502 385.484 284.721 387.328C276.095 389.125 270.533 397.594 272.345 406.25L289.814 480.094L199.156 434.766C194.656 432.516 189.344 432.516 184.844 434.766L95.967 481.484L111.655 406.25C113.467 397.594 107.905 389.125 99.279 387.328C90.592 385.484 82.123 391.062 80.341 399.719L64.654 474.969C62.216 486.609 66.591 498.344 75.998 505.594C85.435 512.828 97.842 514.031 108.498 508.719L192 466.969L275.502 508.719C279.908 510.922 284.627 512 289.314 512C295.94 512 302.471 509.828 308.002 505.594C317.409 498.344 321.784 486.609 319.346 474.953L303.659 399.719Z"/></svg>
